X:18998
T:Xiraldilla (CT 185)
R:Xiraldilla
C:Tradicional
S:Música Tradicional Asturiana, (C) Tello & Tito. Asturies, 2001.
S:http://pagina.de/MusTradAst <telloytito@asturies.org>
N:Xiraldilla, transcrita en Navia.
O:Navia
A:Asturies
Z:Cancioneru de Torner 185
M:3/8
L:1/8
Q:3/8=88
W:¿Cómo vienes tan tarde,
W:majo, a rondarme
W:si me estoy desvistiendo
W:para acostarme?(bis)
W:
W:Si te estás desvistiendo
W:vuélvete a vestir,
W:que a pasar malas noches
W:vengo yo por tí.(bis)
W:
W:Si pasas malas noches,
W:majo, perdona,
W:que un día serásd dueño
W:de mí persona.(bis)
K:G
c2d|cBA|BGA|BGA|B3|c2d|
cBA|BGA|BAG|F2A|BAF|G3:|


